src/amo/components/Icon/img/user-fill.svg

<svg width="10px" height="12px" viewBox="0 0 10 12" version="1.1" xmlns="http://www.w3.org/2000/svg" xmlns:xlink="http://www.w3.org/1999/xlink">
    <!-- Generator: Sketch 44.1 (41455) - http://www.bohemiancoding.com/sketch -->
    <desc>Created with Sketch.</desc>
    <defs></defs>
    <g id="Symbols" stroke="none" stroke-width="1" fill="none" fill-rule="evenodd">
        <g id="Block/Extension/Large/Normal" transform="translate(-611.000000, -27.000000)" fill="#ADB5BD">
            <g id="Icon/User" transform="translate(610.000000, 27.000000)">
                <g id="Group-2" transform="translate(1.000000, 0.000000)">
                    <path d="M6.7305,7.0115 C6.212,7.316 5.629,7.5 5,7.5 C4.371,7.5 3.788,7.316 3.2695,7.0115 C1.447,7.131 0,8.648 0,10.5 L0,11.365 L0.3475,11.4765 C0.4145,11.4975 2.019,12 5,12 C7.981,12 9.5855,11.4975 9.6525,11.4765 L10,11.365 L10,10.5 C10,8.648 8.553,7.131 6.7305,7.0115 Z" id="Shape" fill-rule="nonzero"></path>
                    <path d="M5,6.5 C6.6895,6.5 8,4.6185 8,3 C8,1.3455 6.6545,0 5,0 C3.3455,0 2,1.3455 2,3 C2,4.6185 3.3105,6.5 5,6.5 Z" id="Shape" fill-rule="nonzero"></path>
                </g>
            </g>
        </g>
    </g>
</svg>

<svg width="10" height="12" xmlns="http://www.w3.org/2000/svg"><g fill-rule="nonzero" fill="#ADB5BD"><path d="M6.73 7.011A3.396 3.396 0 0 1 5 7.5a3.396 3.396 0 0 1-1.73-.489A3.502 3.502 0 0 0 0 10.5v.865l.347.111C.415 11.498 2.02 12 5 12s4.585-.502 4.652-.524l.348-.111V10.5a3.502 3.502 0 0 0-3.27-3.489ZM5 6.5c1.69 0 3-1.881 3-3.5 0-1.655-1.346-3-3-3-1.655 0-3 1.345-3 3 0 1.619 1.31 3.5 3 3.5Z"/></g></svg>
